packages/nodes-base/credentials/icons/Imperva.svg

<?xml version="1.0" encoding="UTF-8" standalone="no"?>
<svg
   version="1.1"
   id="Layer_1"
   x="0"
   y="0"
   viewBox="0 0 499.99999 500.00001"
   xml:space="preserve"
   sodipodi:docname="Imperva.svg"
   width="500"
   height="500"
   inkscape:version="1.2.2 (b0a8486541, 2022-12-01)"
   xmlns:inkscape="http://www.inkscape.org/namespaces/inkscape"
   xmlns:sodipodi="http://sodipodi.sourceforge.net/DTD/sodipodi-0.dtd"
   xmlns="http://www.w3.org/2000/svg"
   xmlns:svg="http://www.w3.org/2000/svg"><defs
     id="defs7" /><sodipodi:namedview
     id="namedview5"
     pagecolor="#ffffff"
     bordercolor="#000000"
     borderopacity="0.25"
     inkscape:showpageshadow="2"
     inkscape:pageopacity="0.0"
     inkscape:pagecheckerboard="0"
     inkscape:deskcolor="#d1d1d1"
     showgrid="false"
     inkscape:zoom="1.4340829"
     inkscape:cx="240.22322"
     inkscape:cy="231.15819"
     inkscape:window-width="1920"
     inkscape:window-height="1014"
     inkscape:window-x="0"
     inkscape:window-y="0"
     inkscape:window-maximized="1"
     inkscape:current-layer="g972" /><g
     id="g972"
     transform="matrix(12.458909,0,0,12.458909,53.149238,131.60215)"><g
       id="g2429"
       transform="matrix(1.1703821,0,0,1.1703821,-3.1165512,2.2431085)"><path
         style="fill:#235ae6;fill-opacity:1"
         d="m 26.462714,0.80306724 c 3.4,0 5.5,2.39999996 5.5,6.19999996 V 17.903067 h -4.6 V 8.0030672 c 0,-1.8 -0.8,-3 -2.4,-3 -1.2,0 -2.3,0.8 -2.6,2.2 V 18.003067 h -4.7 V 8.1030672 c 0,-1.8 -0.8,-3 -2.4,-3 -1.2,0 -2.3,0.8 -2.6,2.2 V 18.103067 H 8.0627141 V 1.1030672 h 4.5999999 v 1.4 c 0.8,-1 2.4,-1.79999996 4.2,-1.79999996 2,0 3.6,0.89999996 4.5,2.09999996 1.1,-1.1 2.7,-1.99999996 5.1,-1.99999996 z"
         id="path944"
         sodipodi:nodetypes="ssccsscccssccccccscs" /><path
         style="fill:#235ae6;fill-opacity:1"
         d="M 4.9627141,17.903067 H 0.36271409 V 1.1030672 H 4.9627141 Z"
         id="path942"
         sodipodi:nodetypes="ccccc" /><path
         style="fill:#000000;fill-opacity:1"
         d="M 4.9627141,-5.6969328 H 0.36271409 v 4.6 H 4.9627141 Z"
         id="path2"
         sodipodi:nodetypes="ccccc" /></g></g></svg>

<svg xmlns="http://www.w3.org/2000/svg" xml:space="preserve" width="500" height="500"><path d="M26.463.803c3.4 0 5.5 2.4 5.5 6.2v10.9h-4.6v-9.9c0-1.8-.8-3-2.4-3-1.2 0-2.3.8-2.6 2.2v10.8h-4.7v-9.9c0-1.8-.8-3-2.4-3-1.2 0-2.3.8-2.6 2.2v10.8h-4.6v-17h4.6v1.4c.8-1 2.4-1.8 4.2-1.8 2 0 3.6.9 4.5 2.1 1.1-1.1 2.7-2 5.1-2m-21.5 17.1h-4.6v-16.8h4.6Z" style="fill:#235ae6;fill-opacity:1" transform="translate(14.32 159.549)scale(14.58168)"/><path d="M4.963-5.697h-4.6v4.6h4.6Z" style="fill:#000;fill-opacity:1" transform="translate(14.32 159.549)scale(14.58168)"/></svg>
